Numix/16/status/indicator-keyboard-Ja-1.svg

<?xml version="1.0" encoding="UTF-8" standalone="no"?>
<svg
   xmlns:dc="http://purl.org/dc/elements/1.1/"
   xmlns:cc="http://creativecommons.org/ns#"
   xmlns:rdf="http://www.w3.org/1999/02/22-rdf-syntax-ns#"
   xmlns:svg="http://www.w3.org/2000/svg"
   xmlns="http://www.w3.org/2000/svg"
   xmlns:sodipodi="http://sodipodi.sourceforge.net/DTD/sodipodi-0.dtd"
   xmlns:inkscape="http://www.inkscape.org/namespaces/inkscape"
   viewBox="0 0 16 16"
   id="svg2"
   version="1.1"
   inkscape:version="0.91 r13725"
   sodipodi:docname="indicator-keyboard-Ja-1.svg">
  <metadata
     id="metadata14">
    <rdf:RDF>
      <cc:Work
         rdf:about="">
        <dc:format>image/svg+xml</dc:format>
        <dc:type
           rdf:resource="http://purl.org/dc/dcmitype/StillImage" />
      </cc:Work>
    </rdf:RDF>
  </metadata>
  <defs
     id="defs12" />
  <sodipodi:namedview
     pagecolor="#ffffff"
     bordercolor="#666666"
     borderopacity="1"
     objecttolerance="10"
     gridtolerance="10"
     guidetolerance="10"
     inkscape:pageopacity="0"
     inkscape:pageshadow="2"
     inkscape:window-width="640"
     inkscape:window-height="480"
     id="namedview10"
     showgrid="false"
     inkscape:zoom="14.75"
     inkscape:cx="8"
     inkscape:cy="8"
     inkscape:window-x="65"
     inkscape:window-y="24"
     inkscape:window-maximized="0"
     inkscape:current-layer="svg2" />
  <path
     style="fill:#ececec;fill-opacity:1"
     d="M 1.5996094 0 C 0.71320937 2.9605947e-16 0 0.71320937 0 1.5996094 L 0 14.400391 C 2.9605947e-16 15.286791 0.71320937 16 1.5996094 16 L 14.400391 16 C 15.286791 16 16 15.286791 16 14.400391 L 16 1.5996094 C 16 0.71320937 15.286791 0 14.400391 0 L 1.5996094 0 z M 5.4375 4.859375 L 6.0488281 4.859375 L 6.0488281 9.1347656 C 6.0488281 9.4347656 6.0189844 9.7127031 5.9589844 9.9707031 C 5.8989844 10.222703 5.7945312 10.444719 5.6445312 10.636719 C 5.5005312 10.822719 5.3045938 10.970125 5.0585938 11.078125 C 4.8185937 11.180125 4.5163906 11.230469 4.1503906 11.230469 C 3.9343906 11.230469 3.7366406 11.209969 3.5566406 11.167969 C 3.3766406 11.131969 3.216125 11.087203 3.078125 11.033203 C 2.940125 10.979203 2.8245156 10.921328 2.7285156 10.861328 C 2.6385156 10.801328 2.5694844 10.747219 2.5214844 10.699219 L 2.8085938 10.205078 C 2.8625938 10.253078 2.9298125 10.307187 3.0078125 10.367188 C 3.0918125 10.421187 3.1869219 10.471531 3.2949219 10.519531 C 3.4029219 10.567531 3.5222969 10.606719 3.6542969 10.636719 C 3.7862969 10.666719 3.9318906 10.681641 4.0878906 10.681641 C 4.5498906 10.681641 4.8875156 10.562266 5.1035156 10.322266 C 5.3255156 10.076265 5.4375 9.6583125 5.4375 9.0703125 L 5.4375 4.859375 z M 9.0136719 6.3359375 C 9.3196719 6.3359375 9.5771094 6.3807031 9.7871094 6.4707031 C 10.003109 6.5547031 10.176594 6.6740781 10.308594 6.8300781 C 10.440594 6.9800781 10.537656 7.1591406 10.597656 7.3691406 C 10.657656 7.5791406 10.6875 7.8086875 10.6875 8.0546875 L 10.6875 10.988281 C 10.6275 11.006281 10.539781 11.026781 10.425781 11.050781 C 10.311781 11.068781 10.179297 11.089281 10.029297 11.113281 C 9.8792972 11.137281 9.7113906 11.155969 9.5253906 11.167969 C 9.3453906 11.185969 9.16075 11.195313 8.96875 11.195312 C 8.72275 11.195312 8.4932031 11.167281 8.2832031 11.113281 C 8.0792031 11.059281 7.9001406 10.975328 7.7441406 10.861328 C 7.5941406 10.741328 7.4747656 10.592109 7.3847656 10.412109 C 7.3007656 10.226109 7.2578125 10.000328 7.2578125 9.7363281 C 7.2578125 9.4843281 7.3063437 9.2698437 7.4023438 9.0898438 C 7.4983438 8.9098438 7.6326406 8.7624375 7.8066406 8.6484375 C 7.9806406 8.5284375 8.1877344 8.4407187 8.4277344 8.3867188 C 8.6677344 8.3327188 8.9289375 8.3066406 9.2109375 8.3066406 C 9.2949375 8.3066406 9.3826563 8.3122187 9.4726562 8.3242188 C 9.5686562 8.3302187 9.6581875 8.341375 9.7421875 8.359375 C 9.8321875 8.371375 9.9067969 8.3862969 9.9667969 8.4042969 C 10.032796 8.4162969 10.077562 8.4294063 10.101562 8.4414062 L 10.101562 8.1523438 C 10.101562 7.9903437 10.090406 7.8355469 10.066406 7.6855469 C 10.042406 7.5295469 9.9882965 7.3914844 9.9042969 7.2714844 C 9.8262969 7.1454844 9.7125 7.0466094 9.5625 6.9746094 C 9.4185 6.8966094 9.2263281 6.8574219 8.9863281 6.8574219 C 8.6443281 6.8574219 8.3887031 6.8816875 8.2207031 6.9296875 C 8.0527031 6.9776875 7.9295625 7.016875 7.8515625 7.046875 L 7.7714844 6.5332031 C 7.8734844 6.4852031 8.0282812 6.4404375 8.2382812 6.3984375 C 8.4542813 6.3564375 8.7136719 6.3359375 9.0136719 6.3359375 z M 9.1933594 8.8105469 C 9.0493594 8.8105469 8.8981875 8.8217031 8.7421875 8.8457031 C 8.5861875 8.8637031 8.4425469 8.9084687 8.3105469 8.9804688 C 8.1785469 9.0464688 8.0703281 9.1397656 7.9863281 9.2597656 C 7.9023281 9.3797656 7.8613281 9.5383281 7.8613281 9.7363281 C 7.8613281 9.9103281 7.8874062 10.057734 7.9414062 10.177734 C 8.0014063 10.297734 8.0835469 10.394797 8.1855469 10.466797 C 8.2935469 10.538797 8.4185 10.592906 8.5625 10.628906 C 8.7125 10.658906 8.8804063 10.673828 9.0664062 10.673828 C 9.2944062 10.673828 9.4921563 10.666297 9.6601562 10.654297 C 9.8341562 10.636297 9.9815628 10.615797 10.101562 10.591797 L 10.101562 8.953125 C 10.035562 8.923125 9.931109 8.8932813 9.7871094 8.8632812 C 9.6431094 8.8272812 9.4453594 8.8105469 9.1933594 8.8105469 z M 13.208984 8.8417969 L 13.478516 8.8417969 L 13.478516 12.896484 L 13.099609 12.896484 L 13.099609 9.421875 C 13.056709 9.468675 12.999887 9.5157063 12.929688 9.5664062 C 12.863388 9.6171062 12.786972 9.66805 12.701172 9.71875 C 12.615372 9.76555 12.525241 9.812575 12.431641 9.859375 C 12.338041 9.902275 12.243991 9.9375437 12.150391 9.9648438 L 12.039062 9.671875 C 12.273062 9.5899751 12.482716 9.4880812 12.666016 9.3632812 C 12.849316 9.2345813 13.029584 9.0601969 13.208984 8.8417969 z "
     id="path4" />
</svg>

<svg xmlns="http://www.w3.org/2000/svg" viewBox="0 0 16 16">
 <path d="m 1.6 0 c -0.886 0 -1.6 0.713 -1.6 1.6 l 0 12.801 c 0 0.886 0.713 1.6 1.6 1.6 l 12.801 0 c 0.886 0 1.6 -0.713 1.6 -1.6 l 0 -12.801 c 0 -0.886 -0.713 -1.6 -1.6 -1.6 l -12.801 0 z m 3.838 4.859 l 0.611 0 l 0 4.275 c 0 0.3 -0.03 0.578 -0.09 0.836 c -0.06 0.252 -0.164 0.474 -0.314 0.666 c -0.144 0.186 -0.34 0.333 -0.586 0.441 c -0.24 0.102 -0.542 0.152 -0.908 0.152 c -0.216 0 -0.414 -0.021 -0.594 -0.063 c -0.18 -0.036 -0.341 -0.081 -0.479 -0.135 c -0.138 -0.054 -0.254 -0.112 -0.35 -0.172 c -0.09 -0.06 -0.159 -0.114 -0.207 -0.162 l 0.287 -0.494 c 0.054 0.048 0.121 0.102 0.199 0.162 c 0.084 0.054 0.179 0.104 0.287 0.152 c 0.108 0.048 0.227 0.087 0.359 0.117 c 0.132 0.03 0.278 0.045 0.434 0.045 c 0.462 0 0.8 -0.119 1.016 -0.359 c 0.222 -0.246 0.334 -0.664 0.334 -1.252 l 0 -4.211 z m 3.576 1.477 c 0.306 0 0.563 0.045 0.773 0.135 c 0.216 0.084 0.389 0.203 0.521 0.359 c 0.132 0.15 0.229 0.329 0.289 0.539 c 0.06 0.21 0.09 0.44 0.09 0.686 l 0 2.934 c -0.06 0.018 -0.148 0.038 -0.262 0.063 c -0.114 0.018 -0.246 0.038 -0.396 0.063 c -0.15 0.024 -0.318 0.043 -0.504 0.055 c -0.18 0.018 -0.365 0.027 -0.557 0.027 c -0.246 0 -0.476 -0.028 -0.686 -0.082 c -0.204 -0.054 -0.383 -0.138 -0.539 -0.252 c -0.15 -0.12 -0.269 -0.269 -0.359 -0.449 c -0.084 -0.186 -0.127 -0.412 -0.127 -0.676 c 0 -0.252 0.049 -0.466 0.145 -0.646 c 0.096 -0.18 0.23 -0.327 0.404 -0.441 c 0.174 -0.12 0.381 -0.208 0.621 -0.262 c 0.24 -0.054 0.501 -0.08 0.783 -0.08 c 0.084 0 0.172 0.006 0.262 0.018 c 0.096 0.006 0.186 0.017 0.27 0.035 c 0.09 0.012 0.165 0.027 0.225 0.045 c 0.066 0.012 0.111 0.025 0.135 0.037 l 0 -0.289 c 0 -0.162 -0.011 -0.317 -0.035 -0.467 c -0.024 -0.156 -0.078 -0.294 -0.162 -0.414 c -0.078 -0.126 -0.192 -0.225 -0.342 -0.297 c -0.144 -0.078 -0.336 -0.117 -0.576 -0.117 c -0.342 0 -0.598 0.024 -0.766 0.072 c -0.168 0.048 -0.291 0.087 -0.369 0.117 l -0.08 -0.514 c 0.102 -0.048 0.257 -0.093 0.467 -0.135 c 0.216 -0.042 0.475 -0.063 0.775 -0.063 z m 0.18 2.475 c -0.144 0 -0.295 0.011 -0.451 0.035 c -0.156 0.018 -0.3 0.063 -0.432 0.135 c -0.132 0.066 -0.24 0.159 -0.324 0.279 c -0.084 0.12 -0.125 0.279 -0.125 0.477 c 0 0.174 0.026 0.321 0.08 0.441 c 0.06 0.12 0.142 0.217 0.244 0.289 c 0.108 0.072 0.233 0.126 0.377 0.162 c 0.15 0.03 0.318 0.045 0.504 0.045 c 0.228 0 0.426 -0.008 0.594 -0.02 c 0.174 -0.018 0.321 -0.038 0.441 -0.063 l 0 -1.639 c -0.066 -0.03 -0.17 -0.06 -0.314 -0.09 c -0.144 -0.036 -0.342 -0.053 -0.594 -0.053 z m 4.02 0.031 l 0.27 0 l 0 4.055 l -0.379 0 l 0 -3.475 c -0.043 0.047 -0.1 0.094 -0.17 0.145 c -0.066 0.051 -0.143 0.102 -0.229 0.152 c -0.086 0.047 -0.176 0.094 -0.27 0.141 c -0.094 0.043 -0.188 0.078 -0.281 0.105 l -0.111 -0.293 c 0.234 -0.082 0.444 -0.184 0.627 -0.309 c 0.183 -0.129 0.364 -0.303 0.543 -0.521 z" style="fill:#ececec;fill-opacity:1"/>
</svg>
